X:1
T:Title
%%score { ( 1 3 ) | ( 2 4 ) }
L:1/8
M:6/8
K:F
V:1 treble nm="Grand Piano"
V:3 treble 
V:2 bass 
V:4 bass 
V:1
 z3 z2[Q:1/4=90] C | FCF AFA | c3 A2 A | [EG][EG][EG] [EG][FA][GB] |[M:5/8] A-A- A3 |[M:1/8] C | %6
[M:3/4] FC FA FA | c3 A2 A | [EG][FA] [GB] [FA]2 [EG] |[M:5/8] F-F- F3 |[M:1/8] F | %11
[M:3/4] [Fd]>[Fd] [Fd]f ed | c3 A2 c | =BB BB cd |[M:5/8] [Ec]-[Ec]- [Ec]3 |[M:1/8] [EB] | %16
[M:3/4] A>A AA Bc | c2 B [B,DF]2 [DFG] |[M:13/16] [CFA][CFA][DFB][DFA][CFA]3/2[B,EG] | %19
[M:5/8] [A,CF]-[A,CF]- [A,CF]3 |] %20
V:2
 z3 z2 [F,A,] | [F,A,C][F,A,][F,A,C] [F,CF][F,A,C][F,CF] | [F,A,F]3 [F,CF]2 [F,CF] | %3
 [C,C][C,C][C,C] [C,C][C,C][C,C] |[M:5/8] [F,CF]-[F,CF]- [F,CF]3 |[M:1/8] [F,A,] | %6
[M:3/4] [F,A,C][F,A,] [F,A,C][F,CF] [F,A,C][F,CF] | [F,A,F]3 [F,CF]2 [F,CF] | %8
 [C,C][C,C] [C,C] [C,C]2 [C,B,] |[M:5/8] [F,A,C]-[F,A,C]- [F,A,C]3 |[M:1/8] [F,A,] | %11
[M:3/4] [B,,B,]>[B,,B,] [B,,B,][K:treble][B,DF] [B,CF][B,F] | [F,A,F]3 [F,CF]2 [F,A,F] | %13
 [G,DF][G,DF] [G,DF][G,DF] [G,CE][G,=B,F] |[M:5/8][K:bass] [C,G,]-[C,G,]- [C,G,]3 |[M:1/8] [C,C] | %16
[M:3/4] [F,CF]>[F,CF] [F,CF][F,CF] [G,CE][A,C_E] | B,2 F, B,,2 B,, |[M:13/16] C,C,C,C,C,3/2C, | %19
[M:5/8] F,-F,- F,3 |] %20
V:3
 x6 | x6 | x6 | x6 |[M:5/8] x5 |[M:1/8] x |[M:3/4] x6 | x6 | x6 |[M:5/8] x5 |[M:1/8] x | %11
[M:3/4] x6 | x6 | x6 |[M:5/8] x5 |[M:1/8] x |[M:3/4] x6 | D4 z2 |[M:13/16] x13/2 |[M:5/8] x5 |] %20
V:4
 x6 | x6 | x6 | x6 |[M:5/8] x5 |[M:1/8] x |[M:3/4] x6 | x6 | x6 |[M:5/8] x5 |[M:1/8] x | %11
[M:3/4] x3[K:treble] x3 | x6 | x6 |[M:5/8][K:bass] x5 |[M:1/8] x |[M:3/4] x6 | B,,4 z2 | %18
[M:13/16] x13/2 |[M:5/8] x5 |] %20

